X:18329
T:Vivre (S. Delicq)
M:5/8
L:1/8
K:C
cece z BdBd|AcAc z DBDB|\
CACA z B,GB,G|C3-E3- C2E2|\
cece z BdBd|AcAc z DBDB|\
CACA z B,GB,G|C3-E3- C2E2|
fafa z egeg|fafa z egeg|\
fafa z egeg|c3-e3- c2e2|\
d2f2ce dfce|BdAc z AcBd|\
EcDB z DBEc|C3-A3- C2A2||
